X:1076
T:Vals efter Jöns Persson
T:(SvL Skåne nr. 59)
R:Vals
Z:Patrik Månsson, 2009-01-28
O:Roalöv, Skåne
S:efter Jöns Persson
B:Svenska Låtar Skåne
N:Noten anger "komp. av Harberg"
M:3/4
L:1/8
K:G
|: FE | D2 D2 D2 | DF A2 FD | G2 G2 G2 | GB d2 BG |
e2 e2 e2 | ef g2 fe | ed cd FA | G2 z2 :: d2 | BD GB d2 |
BD GB dB | AD FA c2 | BG gf ed | BD GB d2 | BD GB dB |
AD FA cA | G2 z2 :: g2 | f2 ff f2 | g2 gg g2 | f2 ff f2 |
g4 gf | e2 ce ag | f2 df ba | gf ed ef | g2 z2 :|

(:musicend:)

(:music:)
